X: 1362
T: Crimson Rosella Waltz
C:Barb Scott, 1995
B: australian traditional tunes wiki
M:3/4
L:1/8
Q: 1/4=100
K:C
V:1 
G (3Gcd||"C"e4-ef|"G"d4-de|"C"c4-cA|G4(3GAc|e3d ef|"G"d3c ed|"C"c6-|c4(3Gcd|
"C"e4-ef|"G"d4-de|"C"c4-cA|G4(3GAc|e3d ef|"G"d3c ed|"C"c6-|c6||
||"Dm"d4c2|"G"B4A2|"C"G6-|G6|"Dm"d4c2|"G"B4A2|"Am"A3A (3ABc|"G"d4G2|
"C"(3Gcd e>d e>f|"G"d4-de|"C"c4cd|"Am"e6|"F"e4ef|"G"d3G (3ged|"C"c2-"F"c4|"C"c4||
% abcbook-tune_id 6342d53a41d6227f90da897b


% abcbook-boost 0
% abcbook-tablature 
% abcbook-transpose 
% abcbook-lastupdated 1665324361139
% abcbook-soundfonts 
% abcbook-repeats 1
% NFF Book 2013

